images/img_intro02.svg

<?xml version="1.0" encoding="utf-8"?>
<!-- Generator: Adobe Illustrator 21.0.2, SVG Export Plug-In . SVG Version: 6.00 Build 0)  -->
<svg version="1.1" id="圖層_1" xmlns="http://www.w3.org/2000/svg" xmlns:xlink="http://www.w3.org/1999/xlink" x="0px" y="0px"
	 viewBox="0 0 38.4 36" style="enable-background:new 0 0 38.4 36;" xml:space="preserve">
<style type="text/css">
	.st0{fill:#EFEFEF;}
</style>
<g>
	<path class="st0" d="M24.9,32.6c0,1.9,1.5,3.4,3.4,3.4H35c1.9,0,3.4-1.5,3.4-3.4v-1.1H24.9V32.6z"/>
	<rect x="24.9" y="20.2" class="st0" width="13.5" height="9"/>
	<path class="st0" d="M35,13.5h-6.7c-1.9,0-3.4,1.5-3.4,3.4V18h13.6v-1.1C38.4,15,36.9,13.5,35,13.5z"/>
	<path class="st0" d="M35,0H3.4C1.5,0,0,1.5,0,3.4v19.1h22.6c0-0.3,0-5.6,0-5.6c0-3.1,2.6-5.6,5.6-5.6H35c1.3,0,2.4,0.4,3.4,1.2v-9
		C38.4,1.5,36.9,0,35,0z"/>
	<path class="st0" d="M22.6,24.7H0v1.1c0,1.9,1.5,3.4,3.4,3.4h19.3L22.6,24.7L22.6,24.7z"/>
	<path class="st0" d="M22.6,31.5H12.4l-0.8,2.2H7.9c-0.6,0-1.1,0.5-1.1,1.1s0.5,1.1,1.1,1.1h15.9c-0.7-0.9-1.2-2.1-1.2-3.4
		C22.6,32.5,22.6,31.5,22.6,31.5z"/>
</g>
</svg>

<?xml version="1.0" encoding="UTF-8"?>
<svg width="39px" height="36px" viewBox="0 0 39 36" version="1.1" xmlns="http://www.w3.org/2000/svg" xmlns:xlink="http://www.w3.org/1999/xlink">
    <!-- Generator: Sketch 64 (93537) - https://sketch.com -->
    <title>img_intro02</title>
    <desc>Created with Sketch.</desc>
    <g id="Page-1" stroke="none" stroke-width="1" fill="none" fill-rule="evenodd">
        <g id="img_intro02" fill="#B0939C" fill-rule="nonzero">
            <path d="M24.9,32.6 C24.9,34.5 26.4,36 28.3,36 L35,36 C36.9,36 38.4,34.5 38.4,32.6 L38.4,31.5 L24.9,31.5 L24.9,32.6 Z" id="Path"></path>
            <rect id="Rectangle" x="24.9" y="20.2" width="13.5" height="9"></rect>
            <path d="M35,13.5 L28.3,13.5 C26.4,13.5 24.9,15 24.9,16.9 L24.9,18 L38.5,18 L38.5,16.9 C38.4,15 36.9,13.5 35,13.5 Z" id="Path"></path>
            <path d="M35,0 L3.4,0 C1.5,0 0,1.5 0,3.4 L0,22.5 L22.6,22.5 C22.6,22.2 22.6,16.9 22.6,16.9 C22.6,13.8 25.2,11.3 28.2,11.3 L35,11.3 C36.3,11.3 37.4,11.7 38.4,12.5 L38.4,3.5 C38.4,1.5 36.9,0 35,0 Z" id="Path"></path>
            <path d="M22.6,24.7 L0,24.7 L0,25.8 C0,27.7 1.5,29.2 3.4,29.2 L22.7,29.2 L22.6,24.7 L22.6,24.7 Z" id="Path"></path>
            <path d="M22.6,31.5 L12.4,31.5 L11.6,33.7 L7.9,33.7 C7.3,33.7 6.8,34.2 6.8,34.8 C6.8,35.4 7.3,35.9 7.9,35.9 L23.8,35.9 C23.1,35 22.6,33.8 22.6,32.5 C22.6,32.5 22.6,31.5 22.6,31.5 Z" id="Path"></path>
        </g>
    </g>
</svg>
